svgs/sharp-light/laptop-binary.svg

<svg xmlns="http://www.w3.org/2000/svg" viewBox="0 0 640 512"><!--! Font Awesome Pro 6.6.0 by @fontawesome - https://fontawesome.com License - https://fontawesome.com/license (Commercial License) Copyright 2024 Fonticons, Inc. --><path d="M96 64l448 0 0 288 32 0 0-288 0-32-32 0L96 32 64 32l0 32 0 288 32 0L96 64zM32 418.7l0-2.7 576 0 0 2.7L578.7 448 61.3 448 32 418.7zM608 384L32 384 0 384l0 32 0 16 48 48 544 0 48-48 0-16 0-32-32 0zM176 128l-16 0 0 16 0 80 0 16 16 0 64 0 16 0 0-16 0-80 0-16-16 0-64 0zm16 80l0-48 32 0 0 48-32 0zm112-80l-16 0 0 32 16 0 0 64 0 16 32 0 0-16 0-80 0-16-16 0-16 0zm80 0l0 16 0 80 0 16 16 0 64 0 16 0 0-16 0-80 0-16-16 0-64 0-16 0zm32 32l32 0 0 48-32 0 0-48zM192 272l-16 0 0 32 16 0 0 48 32 0 0-64 0-16-16 0-16 0zm256 16l0-16-16 0-16 0-16 0 0 32 16 0 0 48 32 0 0-64zm-80 0l0-16-16 0-64 0-16 0 0 16 0 64 32 0 0-48 32 0 0 48 32 0 0-64z"/></svg>

<svg xmlns="http://www.w3.org/2000/svg" viewBox="0 0 640 512"><!--! Font Awesome Pro 6.5.2 by @fontawesome - https://fontawesome.com License - https://fontawesome.com/license (Commercial License) Copyright 2024 Fonticons, Inc. --><path d="M96 64H544V352h32V64 32H544 96 64V64 352H96V64zM32 418.7V416H608v2.7L578.7 448H61.3L32 418.7zM608 384H32 0v32 16l48 48H592l48-48V416 384H608zM176 128H160v16 80 16h16 64 16V224 144 128H240 176zm16 80V160h32v48H192zm112-80H288v32h16v64 16h32V224 144 128H320 304zm80 0v16 80 16h16 64 16V224 144 128H464 400 384zm32 32h32v48H416V160zM192 272H176v32h16v48h32V288 272H208 192zm256 16V272H432 416 400v32h16v48h32V288zm-80 0V272H352 288 272v16 64h32V304h32v48h32V288z"/></svg>
